X:1
T:Sechs Lieder
T:Hirtenlied
T:Felix Mendelssohn Bartholdy
T:Text: Ludwig Uhland
T:Hirtenlied
T:Nr. 3 aus Sechs Lieder, Op. 88
T:CPDL - Creative Commons Attribution Non Commercial 3.0
T:CPDL - Creative Commons Attribution Non Commercial 3.0
T:CPDL - Creative Commons Attribution Non Commercial 3.0
T:CPDL - Creative Commons Attribution Non Commercial 3.0
T:CPDL - Creative Commons Attribution Non Commercial 3.0
T:CPDL - Creative Commons Attribution Non Commercial 3.0
T:CPDL - Creative Commons Attribution Non Commercial 3.0
C:Felix Mendelssohn Bartholdy
Z:Ludwig Uhland
Z:CPDL - Creative Commons Attribution Non Commercial 3.0
%%score [ 1 2 3 4 ]
L:1/8
Q:1/4=72
M:2/4
K:Bb
V:1 treble nm="S"
V:2 treble nm="A"
V:3 treble-8 nm="T"
V:4 bass nm="B"
V:1
!p!"^Andante" D | dB A (B/A/) | G2 DD | G>!<(!A Bc!<)! | d2 z d |!p! ed cB/c/ | dA z d | ed cB/c/ | %8
w: 1.~O|Win- ter, schlim- mer _|Win- ter, wie|ist die Welt so|klein! Du|drängst uns all' in die|Tä- ler, du|drängst uns all' in die|
 d B2 G/A/ |"^cresc." Bc dd/e/ | (f3 e | d)c/"^dimin."B/ dc/A/ | G z!p! D>D | d (c/B/)!pp! dc/A/ | %14
w: Tä- ler, in die|en- gen Hüt- ten hin-|ein, _|_ in die Hüt- ten hin-|ein, in die|en- gen _ Hüt- ten hin-|
 G3 ||!p! D | dB A (B/A/) | G2 DD | G>!<(!A Bc!<)! | d2 z!p! d | ed c (B/c/) | d A2 d | ed c B/c/ | %23
w: ein.|2.~Und|geh' ich auch vor _|ü- ber an|mei- ner Lieb- sten|Haus, kaum|sieht sie mit dem _|Köpf- chen, kaum|sieht sie mit dem _|
 d B2 (G/A/) |"^cresc." Bc dd/e/ | (f3 e | dc/)B/"^dimin." dc/A/ | G z D2 | d (c/B/)!pp! dc/A/ | %29
w: Köpf- chen, zum _|klei- nen Fen- ster her-|aus _|_ _ zum Fen- ster her-|aus, zum|klei- nen _ Fen- ster her-|
 G3 ||[K:G]!f! D | dB G (E/F/) | E2 DD | GB d>B | A2 z A | dA/A/ fe/d/ | d2 dA | dA A^c/d/ | %38
w: aus.|3.~O|Som- mer, schön- er _|Som- mer, wie|wird die Welt so|weit! Je|hö- her man steigt auf die|Ber- ge, je|wei- ter sie sich ver-|
!<(! d3 G!<)! |!f! GG/G/ ce/e/ | !fermata!g2 !fermata!e!p!e | dB AB/A/ | G2 z D | %43
w: breit', je|hö- her man steigt auf die|Ber- ge, je|wei- ter sie sich ver-|breit', je|
 d"^dimin."B!pp! AB/A/ | G2 !fermata!z ||!pp! D | dB GE/F/ | E2 DD | GB d>B | A2 z A | %50
w: wei- ter sie sich ver-|breit'.|4.~Und|halt' ich dich in den|Ar- men auf|frei- en Ber- ges-|höh'n, wir|
 dA/A/ f (e/d/) | d2 dA | dA A^c/d/ | d3"^cresc." G | GG/G/ ce |!f! !fermata!g2 !fermata!e!p!e | %56
w: seh'n in die wei- ten _|Lan- de und|wer- den doch nicht ge-|seh'n, wir|seh'n in die wei- ten|Lan- de und|
 dB AB/A/ | G2 z D | dB"^dimin." AB/A/ | G4- |!<(! G4-!<)! |!>(! G4-!>)! |!pp! (GDBD | %63
w: wer- den doch nicht ge-|seh'n, und|wer- den doch nicht ge-|seh'n.|_|||
 !fermata!G4) |] %64
w: |
V:2
!p! D | GD ED | D2 DD | D>!<(!D D=E!<)! | ^F2 z F |!p! G^F AG/G/ | ^FF z F | G^F AG/A/ | %8
w: ||||||||
 B G2 G/^F/ |"^cresc." GA BB/c/ | (d3 c | B)A/"^dimin."G/ BA/^F/ | G z!p! D>D | %13
w: |||||
 B (A/G/)!pp! ^FF/F/ | G3 ||!p! D | GD ED | D2 DD | D>!<(!D D=E!<)! | ^F2 z!p! F | G^F AG | %21
w: ||||||||
 ^F F2 F | G^F AG | B G2 (G/^F/) |"^cresc." GA BB/c/ | (d3 c | BA/)G/"^dimin." BA/^F/ | G z D2 | %28
w: |||||||
 B (A/G/)!pp! ^FF/F/ | G3 ||[K:G]!f! D | GD DC | C2 B,D | DG B>G | F2 z F | FF/F/ AG/F/ | F2 FG | %37
w: |||||||||
 FF AG/F/ |!<(! F2"^je" =F2!<)! |!f! EE/E/ Gc/c/ | !fermata!e2 !fermata!c!p!c | BG DG/D/ | D2 z D | %43
w: ||||||
 G"^dimin."D!pp! DD/D/ | D2 !fermata!z ||!pp! D | DD D^C/C/ | ^C2 =CC | B,D G>D | D2 z D | %50
w: |||||||
 FF/F/ A (G/F/) | F2 FD | FF AG/F/ | F2"^cresc.""^wir" =F2 | EE/E/ Gc | %55
w: |||||
!f! !fermata!e2 !fermata!c!p!c | BG DG/D/ | D2 z D | (GD)"^dimin." D2 | DD ED/E/ | %60
w: |||wer- * den,|wer- den doch nicht ge-|
 E2!<(! ED/E/!<)! |!>(! E2 D>!>)!D |!pp! D4- | !fermata!D4 |] %64
w: seh'n, doch nicht ge-|seh'n, nicht ge-|seh'n.|_|
V:3
!p! D | BB c (d/c/) | B2 B (B/c/) |!<(! B2 B2!<)! | A!p!D d2 | d4- | dD d2- | d4- | d2 d2 | %9
w: 1.~O|Win- ter, schlim- mer _|Win- ter, wie _|ist die|Welt so klein!|_|* Du drängst|_|* uns|
"^cresc." d2 Gg | f4 | B z!p! D>D | d (c/B/) dc/A/ | G2!pp! (Ac) | B3 ||!p! D | BB c (d/c/) | %17
w: all' in die|Tä-|ler, in die|en- gen _ Hüt- ten hin-|ein, hin- *|ein.|2.~Und|geh' ich auch vor- *|
 B2 B (B/c/) |!<(! B2 B2!<)! | A!p!D d2- | d4- | dD d2- | d4- | d2 d2 |"^cresc." d2 (Gg) | f4 | %26
w: ü- ber an _|mei- ner|Lieb- sten Haus,|_|* kaum sieht|_|* sie|mit dem _|Köpf-|
 B z!p! D2 | d (c/B/) dc/A/ | G2!pp! (Ac) | B3 ||[K:G]!f! D | BB BG | G2 GA | Bd g>d | dA A2- | %35
w: chen, zum|klei- nen _ Fen- ster her-|aus, her- *|aus.|3.~O|Som- mer, schön- er|Som- mer, wie|wird die Welt so|weit! Je hö-|
 A2 ^c>c | dA/A/ (A2- | Adfe/d/) |!<(! d2 B2!<)! |!f! cG/G/ ce/e/ | !fermata!g2 !fermata!e z | %41
w: * her man|steigt auf die Ber-||ge, je|hö- her man steigt auf die|Ber- ge,|
 z2 z!p! D | dB AB/A/ | G z!pp! cd/c/ | B2 !fermata!z ||!pp! D | BB BA/A/ | (A>G) FF | GG B>G | %49
w: je|wei- ter sie sich ver-|breit', sie sich ver-|breit'.|4.~Und|halt' ich dich in den|Ar- * men auf|frei- en Ber- ges-|
 FA A2- | A2 ^c>d | dA (A2- | Adfe/d/) | d2"^cresc." B2 | cG/G/ ce |!f! !fermata!g2 !fermata!e z | %56
w: höh'n, wir seh'n|_ in die|wei- ten Lan-||de, wir|seh'n in die wei- ten|Lan- de|
 z2 z!p! D | dB AB/A/ | G z"^dimin." c2 | BB cd/c/ | c2!<(! cd/c/!<)! |!>(! c2 c>!>)!c |!pp! B4- | %63
w: und|wer- den doch nicht ge-|seh'n, und|wer- den doch nicht ge-|seh'n, doch nicht ge-|seh'n, nicht ge-|seh'n.|
 !fermata!B4 |] %64
w: _|
V:4
!p! D, | G,G, G,G, | G,2 G,G, | G,>!<(!G, G,G,!<)! | D,2 z2 | z4 | z4 | z2 z!p! D, | G,2 G,2 | %9
w: ||* * wie|ist die Welt so|klein!|||Du|drängst uns|
"^cresc." G,2 F,E, | B,4 | B, z!p! D,>D, | B, (A,/G,/) B,A,/^F,/ | G, z!pp! D,2 | G,,3 ||!p! D, | %16
w: all' in die|||||||
 G,G, G,G, | G,2 G,G, | G,>!<(!G, G,G,!<)! | D,2 z2 | z4 | z4 | z2 z!p! D, | G,2 G,2 | %24
w: ||mei- ner Lieb- sten|Haus,|||kaum|sieht sie|
"^cresc." G,2 (F,E,) | B,4 | B, z!p! D,2 | B, (A,/G,/) B,A,/^F,/ | G, z!pp! D,2 | G,,3 || %30
w: mit dem _|_|||||
[K:G]!f! D, | G,G, G,G, | G,2 G,G, | G,G, G,,B,, | D,D, D,2- | D,2 A,,>A,, | D,D,/D,/ D,2- | %37
w: |||||||
 D,2 A,,2 |!<(! D,2 G,2!<)! |!f! C,C,/C,/ C,C,/C,/ | !fermata!C2 !fermata!C, z | z2 z!p! D, | %42
w: |||||
 B,G, D,G,/D,/ | B,, z!pp! D,2 | G,,2 !fermata!z ||!pp! D, | G,,G,, G,,G,,/G,,/ | G,,2 G,,G,, | %48
w: |* ver-|breit'.||||
 G,,G,, G,,>B,, | D,3 F, | A,2 A,,>A,, | D,3 F, | A,4 | D,2"^cresc." G,2 | C,C,/C,/ C,C, | %55
w: |* wir|seh'n in die|wei- ten|Lan-|de, *||
!f! !fermata!C2 !fermata!C, z | z2 z!p! D, | B,G, D,G,/D,/ | B,, z"^dimin." D,2 | [G,,G,]4- | %60
w: |||* ge-|seh'n.|
!<(! [G,,G,]4-!<)! |!>(! [G,,G,]4-!>)! |!pp! [G,,G,]4- | !fermata![G,,G,]4 |] %64
w: _||||

